src/assets/img/cssIcon.svg

<svg width="54" height="60" viewBox="0 0 54 60" fill="none" xmlns="http://www.w3.org/2000/svg">
<path d="M0.686099 0.0105726C0.686099 0.243169 0.675518 0.401758 0.686099 0.560346C1.0882 4.95854 1.49029 9.35673 1.88181 13.7655C2.43205 20.0033 2.9717 26.2411 3.52194 32.4684C4.14625 39.4674 4.78114 46.4559 5.38429 53.4549C5.42661 53.9624 5.6065 54.1844 6.08267 54.3113C12.8548 56.1721 19.6058 58.0434 26.378 59.8936C26.833 60.0205 27.3832 60.0416 27.8382 59.9148C34.6316 58.054 41.4143 56.1615 48.2076 54.2902C48.7261 54.1421 48.906 53.9095 48.9483 53.3809C49.16 50.7378 49.4139 48.0841 49.6467 45.4409C50.0382 41.0639 50.4192 36.6868 50.8107 32.3098C51.2657 27.1715 51.7313 22.0438 52.1863 16.9055C52.5249 13.0783 52.8847 9.26157 53.2233 5.4343C53.382 3.63696 53.5195 1.83963 53.6677 0H0.686099V0.0105726ZM43.446 15.2774C43.0968 19.1469 42.7476 23.0271 42.3984 26.8966C41.9963 31.3477 41.5942 35.7987 41.1921 40.2392C41.0757 41.5185 40.9064 42.7978 40.8746 44.0876C40.8535 44.7748 40.5572 44.9546 39.9858 45.1132C35.9013 46.2127 31.8275 47.344 27.7536 48.4647C27.5737 48.5175 27.4044 48.581 27.2245 48.6338C27.161 48.6021 27.0975 48.581 27.0235 48.5492C22.6639 47.3651 18.3043 46.1704 13.9447 44.9651C13.7648 44.9123 13.532 44.6268 13.5109 44.4259C13.204 41.1273 12.9289 37.8287 12.6326 34.4666H19.2884C19.4048 35.7882 19.5318 37.1309 19.6376 38.4842C19.7328 39.7317 19.7222 39.7317 20.8968 40.0489C23.0025 40.6092 25.1188 41.159 27.2245 41.7088L27.2033 41.6559C29.5101 41.0427 31.8169 40.4401 34.1236 39.7846C34.3353 39.7212 34.5787 39.3828 34.6104 39.1502C34.748 38.1353 34.822 37.1097 34.9067 36.0948C35.0442 34.456 35.1818 32.8173 35.3299 31.1045H27.2033L27.2245 31.0622C27.1716 31.0622 27.1081 31.0622 27.0552 31.0622H12.3258C12.1247 28.8737 11.9342 26.7063 11.7332 24.4755H27.0658C27.1187 24.4755 27.1822 24.4755 27.2351 24.4755L27.2139 24.4332H35.9225C36.1236 22.1601 36.3246 19.9399 36.5257 17.6773H27.2033L27.2245 17.635C27.1716 17.635 27.1081 17.635 27.0552 17.635C21.8385 17.6456 16.6218 17.6456 11.4052 17.6562C11.3311 17.6562 11.257 17.6245 11.1195 17.5822C10.929 15.4254 10.7279 13.2686 10.5375 11.0483H27.0552C27.1081 11.0483 27.1716 11.0483 27.2245 11.0483L27.2033 11.006H43.7951C43.6787 12.4862 43.5624 13.8818 43.446 15.2774Z" fill="white"/>
</svg>

<svg width="54" height="60" fill="none" xmlns="http://www.w3.org/2000/svg"><path d="M.686.01c0 .233-.01.392 0 .55.402 4.399.804 8.797 1.196 13.206.55 6.237 1.09 12.475 1.64 18.702.624 7 1.26 13.988 1.862 20.987.043.507.222.73.699.856 6.772 1.861 13.523 3.732 20.295 5.583.455.127 1.005.148 1.46.02 6.794-1.86 13.576-3.753 20.37-5.624.518-.148.698-.38.74-.91.212-2.642.466-5.296.699-7.94.391-4.376.772-8.753 1.164-13.13.455-5.139.92-10.266 1.375-15.405.339-3.827.699-7.643 1.037-11.47.159-1.798.297-3.595.445-5.435H.686v.01Zm42.76 15.267-1.048 11.62-1.206 13.342c-.116 1.28-.286 2.559-.317 3.849-.022.687-.318.867-.89 1.025-4.084 1.1-8.157 2.231-12.231 3.352-.18.052-.35.116-.53.169-.063-.032-.127-.053-.2-.085-4.36-1.184-8.72-2.379-13.08-3.584-.18-.053-.412-.338-.433-.54-.307-3.298-.582-6.596-.878-9.958h6.655c.117 1.321.244 2.664.35 4.017.095 1.248.084 1.248 1.259 1.565 2.106.56 4.222 1.11 6.328 1.66l-.022-.053c2.307-.613 4.614-1.216 6.92-1.871.212-.064.456-.402.487-.635.138-1.015.212-2.04.297-3.055.137-1.639.275-3.278.423-4.99h-8.127l.021-.043H12.325c-.2-2.188-.39-4.356-.592-6.587h15.503l-.022-.042h8.709c.2-2.273.402-4.493.603-6.756h-9.323l.021-.042h-.169c-5.216.01-10.433.01-15.65.021-.074 0-.148-.031-.285-.074-.191-2.157-.392-4.313-.582-6.534h16.687l-.022-.042h16.592c-.116 1.48-.233 2.876-.349 4.271Z" fill="#fff"/></svg>
